!!!COM: Bach, Johann Sebastian
!!!CDT: 1685/3//-1750/7/28/
!!!OTL@@DE: Meinen Jesum lass ich nicht
!!!AGN: 4-Part Chorale
!!!SCT: BH 299
!!!SCT: BWV 380
**harm	**root	**kern	**kern	**kern	**kern
!	!	!bass	!tenor	!alto	!soprno
*	*Iorgan	*Iorgan	*Iorgan	*Iorgan	*Iorgan
*M4/4	*M4/4	*M4/4	*M4/4	*M4/4	*M4/4
*met(c)	*met(c)	*met(c)	*met(c)	*met(c)	*met(c)
*MM60	*MM60	*MM60	*MM60	*MM60	*MM60
*k[b-e-a-d-g-c-]	*k[b-e-a-d-g-c-]	*k[b-e-a-d-g-c-]	*k[b-e-a-d-g-c-]	*k[b-e-a-d-g-c-]	*k[b-e-a-d-g-c-]
*G-:	*G-:	*G-:	*G-:	*G-:	*G-:
=1-	=1-	=1-	=1-	=1-	=1-
I	4EE-	8G-	4g-	4b-	4dd-
.	.	8A-	.	.	.
Ib	4EE-	8B-	4g-	4b-	4dd-
.	.	8G-	.	.	.
IV	4AA-	8c-	4e-	4g-	4ee-
.	.	8B-	.	.	.
iib	4FF	8c-	4a-	4cc-	4ee-
.	.	8A-	.	.	.
=2	=2	=2	=2	=2	=2
V7	4BB-	4d-	8a-	8cc-	4ff
.	.	.	8g-	8b-	.
V7	4BB-	4D-	8a-	4cc-	8ff
.	.	.	8f	.	16gg-
.	.	.	.	.	16aa-
I;	2EE-;	2G-;	2d-;	2b-;	2gg-;
=3	=3	=3	=3	=3	=3
V	4BB-	8D-	8f	4dd-	4aa-
.	.	8E-	8g-	.	.
Vb	4BB-	8F	8a-	8dd-	4aa-
.	.	8D-	8f	8cc-	.
vi	4CC	8E-	8f	4.b-	4gg-
.	.	8F	16e-	.	.
.	.	.	16d	.	.
vi	8CC	8G-	4e-	.	4gg-
V7/V	8FF	8A-	.	8cc	.
=4	=4	=4	=4	=4	=4
iii	4GG	8B-	4d-	8dd-	4ff
.	.	8A-	.	8cc	.
I	8EE-	8G-	4d-	8b-	8ee-
vi7	8CC	8E-	.	8g-	16ff
.	.	.	.	.	16gg-
V/V	4FF	4A-	8d-	4.a-	2ee-
.	.	.	8B-	.	.
V/V	4FF	4AA-	4c	.	.
.	.	.	.	8g-	.
=5	=5	=5	=5	=5	=5
V;	2BB-;	2D-;	2A-;	2f;	2dd-;
I	4EE-	8G-	8B-	4g-	4dd-
.	.	8A-	8c-y	.	.
Ib	4EE-	8B-	8d-	4g-	4dd-
.	.	8G-	8B-	.	.
=6	=6	=6	=6	=6	=6
IV	4AA-	8c-	8c-	4g-	4ee-
.	.	8B-	8d-	.	.
ii	4FF	8A-	4e-	4cc-	4ee-
.	.	8G-	.	.	.
V7b	8BB-	8F	8A-	8cc-	4dd-
viio/ii	8EE	8G	8B-	8b-	.
ii	4FF	4A-	8c-	4a-	8cc-
.	.	.	8d-	.	8b-
!!linebreak: 2
=7	=7	=7	=7	=7	=7
VI;	2CC;	2E-;	2e-;	2g;	2b-;
viiob/II	4EE	8B-	8d-	8g	4dd-
.	.	8A-	8c-	8a-	.
V7b/II	4CC	8G	4B-	8b-	4dd-
.	.	8E-	.	8g	.
=8	=8	=8	=8	=8	=8
ii	4FF	8A-	4c-	4e-	4cc-
.	.	8G-y	.	.	.
V7b	4BB-	8F	4d-	8a-	4cc-
.	.	8D-	.	8f	.
I	4EE-	8G-	4d-	4g-	4b-
.	.	8B-	.	.	.
ii7b	8FF	8c-	8e-	4g-	8a-
ii7	8FF	8A-	8c-	.	16b-
.	.	.	.	.	16cc-
=9	=9	=9	=9	=9	=9
V	4BB-	4d-	8d-	4g-	2a-
.	.	.	8B-	.	.
V7	4BB-	4D-	4c-	4f	.
I;	2EE-;	2G-;	2B-;	2d-;	2g-;
=10	=10	=10	=10	=10	=10
I	4EE-	8g-	4g-	4b-	4dd-
.	.	8f-	.	.	.
vi7	4CC	8e-	4g-	4b-	4dd-
.	.	8d-	.	.	.
IV	4AA-	8c-	4g-	4cc-	4ee-
.	.	8B-	.	.	.
ii	4FF	8A-	4a-	8cc-	4ee-
.	.	8G-	.	8b-	.
=11	=11	=11	=11	=11	=11
viiob/vi	4BB	8F	8d	4a-	4ff
.	.	8E-	8e-	.	.
V/vi	8GG	8D	8f	4b-	8ff
V/vi	8GG	8BB-	8d	.	16gg-
.	.	.	.	.	16aa-
vi;	2CC;	2E-;	2e-;	2b-;	2gg-;
=12	=12	=12	=12	=12	=12
I	4EE-	8G-	4B-	4g-	4dd-
.	.	8F-	.	.	.
vi7	4CC	8E-	4B-	4g-	8dd-
.	.	8D-	.	.	16ee-
.	.	.	.	.	16ff-
IV	8AA-	8C-	8c-	8g-	8ee-
V	8BB-	8D-	8A-	8f	8dd-
IVb	8AA-	8E-	8G-	4g-	8cc-
Ic	8EE-	8D-	8d-	.	8b-
=13	=13	=13	=13	=13	=13
ii7b	4FF	4C-	4e-	4g-	8a-
.	.	.	.	.	16b-
.	.	.	.	.	16cc-
V	4BB-	4D-	8d-	4f	4a-
.	.	.	8c-	.	.
I;	2EE-;	2G-;	2B-;	2d-;	2g-;
==	==	==	==	==	==
*-	*-	*-	*-	*-	*-
!!chor2scor: -l 2 -s 0.6 -o %b.pmx
!!!YEC: Copyright 1994, David Huron
!!!YEC: Changes/Additions 2001 by Craig Stuart Sapp
!!!YEN: United States of America
!!!SMA: 371 Bach Chorales, edited by Ludwig Erk, C.F. Peters
!!!PDT: 1850, 1865
!!!ONB: Harmony and Root analysis done manually
